usr/share/icons/biglinux-icons-material/22/actions/gnumeric-protection-yes.svg

<svg id="svg6" version="1.1" viewBox="0 0 22 22" xmlns="http://www.w3.org/2000/svg">
    <defs id="defs3051">
        <style id="current-color-scheme" type="text/css">.ColorScheme-Text {
        color:#dedede;
      }</style>
    </defs>
    <path id="path4" class="ColorScheme-Text" d="m11 3c-2.216 0-4 1.784-4 4v4h-2v8h12v-8h-2v-4c0-2.216-1.784-4-4-4zm0 1c1.662 0 3 1.561 3 3.5v3.5h-6v-3.5c0-1.939 1.338-3.5 3-3.5zm-5 8h10v6h-10z" fill="currentColor"/>
</svg>

<svg xmlns="http://www.w3.org/2000/svg" viewBox="0 0 22 22"><path fill="currentColor" d="M11 3C8.784 3 7 4.784 7 7v4H5v8h12v-8h-2V7c0-2.216-1.784-4-4-4zm0 1c1.662 0 3 1.561 3 3.5V11H8V7.5C8 5.561 9.338 4 11 4zm-5 8h10v6H6z" style="color:#dedede"/></svg>
